X: 26
T: Swallow's Tail, The
Z: JACKB
S: https://thesession.org/tunes/105#setting50253
R: reel
M: 4/4
L: 1/8
K: Ador
|:gf|eAcA eAcA|(3Bcd ef gedB|G2BG dGBG|(3Bcd ef g2gf|
eAcA eAcA|(3Bcd ef g2fg|afge dfed|cABG A2:|
|:(3Bcd|eaab aged|(3Bcd ef gedB|G2 BG dGBG|(3Bcd ef g2fg|
eaab aged|(3Bcd ef g2fg|afge dfed|cABG A2:|

